web/toolbox/toolbox-black.svg

<svg height="32" viewBox="0 0 32 32" width="32" xmlns="http://www.w3.org/2000/svg"><g fill="#000001"><path d="m16 32.076 14-8.0106v-16.0086l-14 8.01z"/><path d="m2 8.0568v16.0086l14 8.0106v-16.0087zm12 20.57-10-5.7216v-12.2879l10 5.7227z"/><path d="m26 22.4713-8 4.51v-3.0446l8-4.51v3.0445z"/><path d="m16 .076-14 7.9808 14 8.01 14-8.01zm-10.7169 8.3774 10.7169-6.0757 9.9668 5.6817-10.7168 6.0969z"/></g><path d="m26 22.4713-6.83 3.8311v-3.0446l6.83-3.831z" fill="#fff"/></svg>

<svg id="Layer_1" data-name="Layer 1" xmlns="http://www.w3.org/2000/svg" width="32" height="32" viewBox="0 0 32 32">
  <g>
    <path d="M16,32.076l14-8.0106V8.0568l-14,8.01V32.076Z" fill="#000001"/>
    <path d="M2,8.0568V24.0654L16,32.076V16.0673Zm12,20.57L4,22.9052V10.6173L14,16.34V28.6268Z" fill="#000001"/>
    <path d="M26,22.4713l-8,4.51,0-3.0446,8-4.51v3.0445Z" fill="#000001"/>
    <path d="M16,0.076L2,8.0568l14,8.01,14-8.01ZM5.2831,8.4534L16,2.3777l9.9668,5.6817L15.25,14.1563Z" fill="#000001"/>
  </g>
  <path d="M26,22.4713l-6.83,3.8311V23.2578L26,19.4268v3.0445Z" fill="#fff"/>
</svg>
